packages/core/src/svgs/tokens/mono/MOBILE.svg

<svg width="24" height="24" viewBox="0 0 24 24" fill="none" xmlns="http://www.w3.org/2000/svg">
<path d="M2 5.99333C2 5.55131 2.17559 5.12738 2.48815 4.81481C2.80072 4.50225 3.22465 4.32666 3.66667 4.32666C4.1087 4.32666 4.53262 4.50225 4.84518 4.81481C5.15774 5.12738 5.33335 5.55131 5.33335 5.99333V18.0066C5.33335 18.4487 5.15774 18.8726 4.84518 19.1853C4.53262 19.4978 4.1087 19.6734 3.66667 19.6734C3.22465 19.6734 2.80072 19.4978 2.48815 19.1853C2.17559 18.8726 2 18.4487 2 18.0066V5.99333ZM18.6667 5.99333C18.6667 5.55131 18.8424 5.12738 19.1549 4.81481C19.4674 4.50225 19.8913 4.32666 20.3334 4.32666C20.7755 4.32666 21.1994 4.50225 21.5119 4.81481C21.8244 5.12738 22 5.55131 22 5.99333V18.0066C22 18.4487 21.8244 18.8726 21.5119 19.1853C21.1994 19.4978 20.7755 19.6734 20.3334 19.6734C19.8913 19.6734 19.4674 19.4978 19.1549 19.1853C18.8424 18.8726 18.6667 18.4487 18.6667 18.0066V5.99333ZM7.66669 8.99995C7.44637 9.00088 7.22839 9.04522 7.02528 9.13062C6.82216 9.21586 6.63788 9.34046 6.48303 9.49711C6.32817 9.65391 6.2058 9.83964 6.1229 10.0437C6.04002 10.2478 5.99825 10.4664 6.00001 10.6866V17.98C6.00001 18.9134 6.74668 19.6667 7.66669 19.6667C8.58668 19.6667 9.33339 18.9134 9.33339 17.98V10.6866C9.33339 9.75331 8.58668 8.99995 7.66669 8.99995ZM14.6666 10.6866C14.6666 9.75331 15.4133 8.99995 16.3334 8.99995C17.2534 8.99995 18 9.75331 18 10.6866V17.98C18 18.9134 17.2534 19.6667 16.3334 19.6667C16.113 19.6658 15.8951 19.6215 15.6919 19.5361C15.4889 19.4508 15.3046 19.3262 15.1498 19.1696C14.9948 19.0128 14.8724 18.827 14.7897 18.623C14.7068 18.4189 14.6649 18.2003 14.6666 17.98V10.6866ZM12.0001 13.7001C11.5591 13.7001 11.1363 13.8748 10.8239 14.1859C10.5114 14.497 10.3352 14.9192 10.3333 15.36V18.0066C10.3333 18.4487 10.5089 18.8726 10.8214 19.1853C11.1341 19.4978 11.558 19.6734 12.0001 19.6734C12.442 19.6734 12.8659 19.4978 13.1786 19.1853C13.4911 18.8726 13.6667 18.4487 13.6667 18.0066V15.36C13.6667 14.9179 13.4911 14.494 13.1786 14.1815C12.8659 13.869 12.442 13.6934 12.0001 13.6934V13.7001Z" fill="white"/>
</svg>

<svg xmlns="http://www.w3.org/2000/svg" width="24" height="24" fill="none" viewBox="0 0 24 24">
    <path fill="#fff" d="M2 5.993a1.667 1.667 0 0 1 3.333 0v12.014a1.667 1.667 0 0 1-3.333 0zm16.667 0a1.667 1.667 0 0 1 3.333 0v12.014a1.667 1.667 0 0 1-3.333 0zM7.667 9A1.673 1.673 0 0 0 6 10.687v7.293c0 .933.747 1.687 1.667 1.687s1.666-.754 1.666-1.687v-7.293C9.333 9.753 8.587 9 7.667 9m7 1.687c0-.934.746-1.687 1.666-1.687S18 9.753 18 10.687v7.293c0 .933-.747 1.687-1.667 1.687a1.673 1.673 0 0 1-1.666-1.687zM12 13.7a1.667 1.667 0 0 0-1.667 1.66v2.647a1.667 1.667 0 0 0 3.334 0V15.36A1.667 1.667 0 0 0 12 13.693z"/>
</svg>
